assets/face.svg

<svg width="22" height="22" viewBox="0 0 22 22" fill="none" xmlns="http://www.w3.org/2000/svg">
<path d="M11.0007 1.83325C5.9379 1.83325 1.83398 5.93717 1.83398 10.9999C1.83398 15.575 5.18623 19.3673 9.56882 20.0557V13.6491H7.24048V10.9999H9.56882V8.9805C9.56882 6.68333 10.9365 5.41467 13.0311 5.41467C14.0339 5.41467 15.0826 5.59342 15.0826 5.59342V7.84842H13.9276C12.7882 7.84842 12.4334 8.55517 12.4334 9.28025V10.9999H14.9753L14.5692 13.6491H12.4334V20.0557C16.8151 19.3682 20.1673 15.5741 20.1673 10.9999C20.1673 5.93717 16.0634 1.83325 11.0007 1.83325Z" fill="#1A191E"/>
</svg>

<svg width="22" height="22" fill="none" xmlns="http://www.w3.org/2000/svg"><path d="M11 1.833A9.166 9.166 0 0 0 9.57 20.056v-6.407H7.24V11H9.57V8.98c0-2.297 1.367-3.565 3.462-3.565 1.003 0 2.052.178 2.052.178v2.255h-1.155c-1.14 0-1.495.707-1.495 1.432V11h2.542l-.406 2.65h-2.136v6.406A9.166 9.166 0 0 0 11 1.834Z" fill="#1A191E"/></svg>
